wp-content/themes/sd-accesslasers/public/images/home/technology/mode-of-operation.svg

<?xml version="1.0" encoding="UTF-8"?>
<svg width="446px" height="260px" viewBox="0 0 446 260" version="1.1" xmlns="http://www.w3.org/2000/svg" xmlns:xlink="http://www.w3.org/1999/xlink">
    <!-- Generator: Sketch 55 (78076) - https://sketchapp.com -->
    <title>Mode of Operation</title>
    <desc>Created with Sketch.</desc>
    <g id="Home" stroke="none" stroke-width="1" fill="none" fill-rule="evenodd">
        <g id="AL_Home" transform="translate(-1293.000000, -5432.000000)">
            <g id="Compare-Technologies" transform="translate(150.000000, 4912.000000)">
                <g id="3" transform="translate(1113.000000, 235.000000)">
                    <g id="img" transform="translate(0.000000, 205.000000)">
                        <g id="bg"></g>
                        <g id="icon" transform="translate(142.000000, 135.000000)" stroke="#2C2E32" stroke-width="2">
                            <g id="top" transform="translate(1.000000, 0.000000)" stroke-linejoin="round">
                                <polyline id="Path-2" points="-5.43565193e-13 10.936679 27.4284965 10.936679 29.1644773 2.30038211e-13 35.4140082 2.30038211e-13 36.9226779 11.5665019"></polyline>
                                <polyline id="Path-2-Copy" points="36 10.936679 63.4284965 10.936679 65.1644773 2.30038211e-13 71.4140082 2.30038211e-13 72.9226779 11.5665019"></polyline>
                                <polyline id="Path-2-Copy-2" points="72 10.936679 99.4284965 10.936679 101.164477 2.30038211e-13 107.414008 2.30038211e-13 108.922678 11.5665019"></polyline>
                                <polyline id="Path-2-Copy-3" points="108 10.936679 135.428497 10.936679 137.164477 2.30038211e-13 143.414008 2.30038211e-13 144.922678 11.5665019"></polyline>
                                <polyline id="Path-2-Copy-4" points="144 10.936679 171.428497 10.936679 173.164477 2.30038211e-13 179.414008 2.30038211e-13 180.922678 11.5665019"></polyline>
                                <polyline id="Path-2-Copy-5" points="180 10.936679 207.428497 10.936679 209.164477 2.30038211e-13 215.414008 2.30038211e-13 216.922678 11.5665019"></polyline>
                            </g>
                            <g id="bottom" transform="translate(0.662253, 85.000000)">
                                <path d="M72.0979613,62.6870536 C70.1848765,32.5504809 70.771807,11.6547964 73.8587531,0 C77.7331854,30.33397 83.7695848,61.4780234 95.1093867,62.3285086 C102.669255,62.8954987 110.667048,63.2869593 119.102766,63.5028905" id="Path-3-Copy" stroke-linejoin="round"></path>
                                <path d="M118.097961,62.6870536 C116.184876,32.5504809 116.771807,11.6547964 119.858753,0 C123.733185,30.33397 129.769585,61.4780234 141.109387,62.3285086 C148.669255,62.8954987 156.667048,63.2869593 165.102766,63.5028905" id="Path-3-Copy-3" stroke-linejoin="round"></path>
                                <path d="M164.097961,62.6870536 C162.184876,32.5504809 162.771807,11.6547964 165.858753,0 C169.733185,30.33397 175.769585,61.4780234 187.109387,62.3285086 C194.669255,62.8954987 202.667048,63.2869593 211.102766,63.5028905" id="Path-3-Copy-4" stroke-linejoin="round"></path>
                                <path d="M210.097961,62.6870536 C208.184876,32.5504809 208.771807,11.6547964 211.858753,0 C213.714562,14.5296285 216.066392,29.2451146 219.259469,40.7283394" id="Path-3-Copy-5" stroke-linejoin="round"></path>
                                <path d="M26.0979613,62.6870536 C24.1848765,32.5504809 24.771807,11.6547964 27.8587531,0 C31.7331854,30.33397 37.7695848,61.4780234 49.1093867,62.3285086 C56.6692546,62.8954987 64.6670478,63.2869593 73.1027663,63.5028905" id="Path-3-Copy-2" stroke-linejoin="round"></path>
                                <path d="M0.278567244,61.4450544 C1.18370455,61.9535685 2.12662943,62.2548018 3.10938667,62.3285086 C10.6692546,62.8954987 18.6670478,63.2869593 27.1027663,63.5028905" id="Path-3-Copy-6"></path>
                            </g>
                        </g>
                    </g>
                </g>
            </g>
        </g>
    </g>
</svg>

<svg width="446" height="260" viewBox="0 0 446 260" version="1.1" xmlns="http://www.w3.org/2000/svg"><g id="Home" stroke="none" stroke-width="1" fill="none" fill-rule="evenodd"><g id="AL_Home" transform="translate(-1293 -5432)"><g id="Compare-Technologies" transform="translate(150 4912)"><g id="3" transform="translate(1113 235)"><g id="img" transform="translate(0 205)"><g id="icon" transform="translate(142 135)" stroke="#2C2E32" stroke-width="2"><g id="top" transform="translate(1)" stroke-linejoin="round"><path id="Path-2" d="M0 10.937h27.428L29.164 0h6.25l1.509 11.567"/><path id="Path-2-Copy" d="M36 10.937h27.428L65.164 0h6.25l1.509 11.567"/><path id="Path-2-Copy-2" d="M72 10.937h27.428L101.164 0h6.25l1.509 11.567"/><path id="Path-2-Copy-3" d="M108 10.937h27.428L137.164 0h6.25l1.509 11.567"/><path id="Path-2-Copy-4" d="M144 10.937h27.428L173.164 0h6.25l1.509 11.567"/><path id="Path-2-Copy-5" d="M180 10.937h27.428L209.164 0h6.25l1.509 11.567"/></g><g id="bottom" transform="translate(.662 85)"><path d="M72.098 62.687C70.185 32.55 70.772 11.655 73.858 0c3.875 30.334 9.912 61.478 21.251 62.329 7.56.566 15.558.958 23.994 1.174" id="Path-3-Copy" stroke-linejoin="round"/><path d="M118.098 62.687c-1.913-30.137-1.326-51.032 1.76-62.687 3.875 30.334 9.912 61.478 21.251 62.329 7.56.566 15.558.958 23.994 1.174" id="Path-3-Copy-3" stroke-linejoin="round"/><path d="M164.098 62.687c-1.913-30.137-1.326-51.032 1.76-62.687 3.875 30.334 9.912 61.478 21.251 62.329 7.56.566 15.558.958 23.994 1.174" id="Path-3-Copy-4" stroke-linejoin="round"/><path d="M210.098 62.687c-1.913-30.137-1.326-51.032 1.76-62.687 1.857 14.53 4.208 29.245 7.401 40.728" id="Path-3-Copy-5" stroke-linejoin="round"/><path d="M26.098 62.687C24.185 32.55 24.772 11.655 27.858 0c3.875 30.334 9.912 61.478 21.251 62.329 7.56.566 15.558.958 23.994 1.174" id="Path-3-Copy-2" stroke-linejoin="round"/><path d="M.279 61.445c.905.509 1.848.81 2.83.884 7.56.566 15.558.958 23.994 1.174" id="Path-3-Copy-6"/></g></g></g></g></g></g></g></svg>
